X:1
T:Stars of Evening, 85.85.843
T:Stars of Evening, 85.85.843
T:Richard Francis Lloyd (1871–1943)
T:Public Domain Courtesy of the Cyber Hymnal™
C:Richard Francis Lloyd (1871–1943)
Z:Public Domain
Z:Courtesy of the Cyber Hymnal™
%%score ( 1 2 ) ( 3 4 )
L:1/8
Q:1/4=110
M:none
K:Eb
V:1 treble 
V:2 treble 
V:3 bass 
V:4 bass 
V:1
 E3 [EF] [EF]2 [EG]2 | [EG]3 [EA] [EA]2 [EB]2 | [Ec]2 [DB]2 [CE]2 [DF]2 | [EG]8 | %4
 [DG]3 [G=A] [GA]2 [G=B]2 | [G=B]3 [Gc] [Gc]2 [Fd]2 | [Ee]2 [Gc]2 [FG]2 [E=A]2 | [DB]8 | %8
 [Ee]3 [Ge] [Fd]2 [FG]2 | [Ec]3 [Ec] [_DB]2 [DE]2 | [CA]2 [CG]2 [CF]2 [CE]2 | [B,E]4 [DF]4 | E8 |] %13
V:2
 E3 x5 | x8 | x8 | x8 | x8 | x8 | x8 | x8 | x8 | x8 | x8 | x8 | E8 |] %13
V:3
 [E,G,]3 [E,A,] [E,A,]2 [E,B,]2 | [C,C]3 [C,A,] [C,A,]2 [B,,G,]2 | %2
 [A,,A,]2 [B,,A,]2 [C,G,]2 [B,,B,]2 | [E,B,]8 | [G,=B,]3 [G,C] [G,C]2 [G,D]2 | %5
 [F,D]3 [E,C] [E,C]2 [D,=B,]2 | [C,C]2 [E,C]2 [F,D]2 [F,C]2 | B,8 | %8
 [G,B,]3 [G,B,] [G,=B,]2 [G,B,]2 | [A,C]3 [A,C] [E,G,]2 [E,G,]2 | %10
 [F,A,]2 [F,B,]2 [F,A,]2 [A,,A,]2 | [B,,G,]4 [B,,A,]4 | [E,G,]8 |] %13
V:4
 x8 | x8 | x8 | x8 | x8 | x8 | x8 | B,4 A,4 | x8 | x8 | x8 | x8 | x8 |] %13

